X: 6943
T: Cheshire Round
R: three-two
M: 3/2
K: Dmajor
|:f2ef gfed f2a2|b2e2- e2d2 c2A2|f2ef gfed dcBA|d2D2- D2A2 F2D2:|
|:B2AB =cBAG F2D2|E2e2- e2d2 c2A2|B2AB =cBAG FGA^c|[D2A2]d2- d2A2 F2D2:|

